src/basic/400/u2192-right.svg

<svg width="32" height="32" viewBox="0 0 32 32" fill="none" xmlns="http://www.w3.org/2000/svg">
<path fill-rule="evenodd" clip-rule="evenodd" d="M28.7961,16.1698l-9.8163,-9.81624l0.7072,-0.70711l10.6666,10.66665l0.3535,0.3535l-0.3535,0.3536l-10.6667,10.6667l-0.7071,-0.7071l9.81,-9.81h-28.7898v-1z" fill="black"/>
</svg>

<svg width="32" height="32" viewBox="0 0 32 32" fill="none" xmlns="http://www.w3.org/2000/svg">
<path fill-rule="evenodd" clip-rule="evenodd" d="M28.7961 16.1698L18.9798 6.35356L19.687 5.64645L30.3536 16.3131L30.7071 16.6666L30.3536 17.0202L19.6869 27.6869L18.9798 26.9798L28.7898 17.1698H0V16.1698H28.7961Z" fill="black"/>
</svg>
